papirus/32x32/apps/glade.svg

<?xml version="1.0" encoding="UTF-8" standalone="no"?>
<svg id="svg9132" xmlns:rdf="http://www.w3.org/1999/02/22-rdf-syntax-ns#" xmlns="http://www.w3.org/2000/svg" viewBox="0 0 32 32.000001" width="32" version="1.1" xmlns:cc="http://creativecommons.org/ns#" height="32" xmlns:dc="http://purl.org/dc/elements/1.1/">
 <metadata id="metadata9137">
  <rdf:RDF>
   <cc:Work rdf:about="">
    <dc:format>image/svg+xml</dc:format>
    <dc:type rdf:resource="http://purl.org/dc/dcmitype/StillImage"/>
    <dc:title/>
   </cc:Work>
  </rdf:RDF>
 </metadata>
 <g id="layer1" transform="translate(0 -1020.4)">
  <g id="g7688" transform="translate(0 1020.4)">
   <path id="rect4255" fill="#ccc" d="m27 28.5v-25c0-0.831-0.669-1.5-1.5-1.5h-19c-0.831 0-1.5 0.669-1.5 1.5v25c0 0.831 0.669 1.5 1.5 1.5h19c0.831 0 1.5-0.669 1.5-1.5z"/>
   <path id="rect4208" opacity=".1" fill="#fff" d="m6.5 2c-0.831 0-1.5 0.669-1.5 1.5v1c0-0.831 0.669-1.5 1.5-1.5h19c0.831 0 1.5 0.669 1.5 1.5v-1c0-0.831-0.669-1.5-1.5-1.5z"/>
   <path id="path4570" opacity=".2" d="m2 5v22c0 2 2 2 2 2h26l-28-24zm5 10.871 9.482 8.129h-9.482v-8.129z"/>
   <path id="rect4255-1" fill="#8ac249" d="m2 4v22c0 2 2 2 2 2h26l-28-24zm5 10.871 9.482 8.129h-9.482v-8.129z"/>
   <path id="path9473" opacity=".2" d="m5 28.5v1c0 0.831 0.669 1.5 1.5 1.5h19c0.831 0 1.5-0.669 1.5-1.5v-1c0 0.831-0.669 1.5-1.5 1.5h-19c-0.831 0-1.5-0.669-1.5-1.5z"/>
  </g>
 </g>
</svg>

<?xml version="1.0" encoding="UTF-8" standalone="no"?>
<svg
   xmlns:dc="http://purl.org/dc/elements/1.1/"
   xmlns:cc="http://creativecommons.org/ns#"
   xmlns:rdf="http://www.w3.org/1999/02/22-rdf-syntax-ns#"
   xmlns:svg="http://www.w3.org/2000/svg"
   xmlns="http://www.w3.org/2000/svg"
   version="1.1"
   id="svg9132"
   viewBox="0 0 32 32.000001"
   height="32"
   width="32">
  <defs
     id="defs9134" />
  <metadata
     id="metadata9137">
    <rdf:RDF>
      <cc:Work
         rdf:about="">
        <dc:format>image/svg+xml</dc:format>
        <dc:type
           rdf:resource="http://purl.org/dc/dcmitype/StillImage" />
        <dc:title></dc:title>
      </cc:Work>
    </rdf:RDF>
  </metadata>
  <g
     transform="translate(0,-1020.3622)"
     id="layer1">
    <g
       id="g7688"
       transform="translate(0,1020.3622)">
      <path
         id="rect4255"
         d="m 27,28.5 0,-25 C 27,2.669 26.331,2 25.5,2 L 6.5,2 C 5.669,2 5,2.669 5,3.5 l 0,25 C 5,29.331 5.669,30 6.5,30 l 19,0 c 0.831,0 1.5,-0.669 1.5,-1.5 z"
         style="fill:#cccccc" />
      <path
         id="rect4208"
         d="M 6.5,2 C 5.669,2 5,2.669 5,3.5 l 0,1 C 5,3.669 5.669,3 6.5,3 l 19,0 C 26.331,3 27,3.669 27,4.5 l 0,-1 C 27,2.669 26.331,2 25.5,2 Z"
         style="opacity:0.1;fill:#ffffff" />
      <path
         id="path4570"
         d="m 2,5 0,22 c 0,2 2,2 2,2 L 30,29 2,5 Z M 7,15.871 16.482,24 7,24 7,15.871 Z"
         style="opacity:0.2" />
      <path
         id="rect4255-1"
         d="m 2,4 0,22 c 0,2 2,2 2,2 L 30,28 2,4 Z M 7,14.871 16.482,23 7,23 7,14.871 Z"
         style="fill:#8ac249" />
      <path
         id="path9473"
         d="m 5,28.5 0,1 C 5,30.331 5.669,31 6.5,31 l 19,0 c 0.831,0 1.5,-0.669 1.5,-1.5 l 0,-1 c 0,0.831 -0.669,1.5 -1.5,1.5 l -19,0 C 5.669,30 5,29.331 5,28.5 Z"
         style="opacity:0.2" />
    </g>
  </g>
</svg>
